**kern	**kern
*part1	*part1
*staff2	*staff1
*I"Piano	*
*clefF4	*clefG2
*k[b-e-a-d-]	*k[b-e-a-d-]
=1	=1
4E-^ 4G	4d-^ 4e- 4dd-
8E-L 8G	8d-L 8e- 8b-
8E-J 8G	8d-J 8e- 8b-
=	=
!	!LO:TX:a:i:t=dim.
4E-^ 4G	4d-^ 4e- 4dd-
8E-L 8G	8d-L 8e- 8b-
8E-J 8G	8d-J 8e- 8b-
=	=
4E-^ 4G	4d-^ 4e- 4dd-
8E-L 8G	8d-L 8e- 8b-
8E-J 8G	8d-J 8e- 8b-
=	=
4E-^ 4G	4d-^ 4e- 4dd-
8E-L 8G	8d-L 8e- 8b-
8E-J 8G	8d-J 8e- 8b-
=	=
(2F-X	((2c-X 2f-X 2a-
=	=
(2C-X)	((2c-X)) 2e- 2g-X
=	=
!	!LO:TX:b:i:t=dim.
(2D-)	((2A-)) 2d- 2f-X
=	=
2AA-)	2A-)) 2c-X 2e-
=	=
*-	*-
!!!system-decoration: {(s1,s2)}
